resources/images/cog.svg

<?xml version="1.0" encoding="UTF-8" standalone="no"?>
<!-- Created with Inkscape (http://www.inkscape.org/) -->

<svg
   xmlns:dc="http://purl.org/dc/elements/1.1/"
   xmlns:cc="http://creativecommons.org/ns#"
   xmlns:rdf="http://www.w3.org/1999/02/22-rdf-syntax-ns#"
   xmlns:svg="http://www.w3.org/2000/svg"
   xmlns="http://www.w3.org/2000/svg"
   xmlns:sodipodi="http://sodipodi.sourceforge.net/DTD/sodipodi-0.dtd"
   xmlns:inkscape="http://www.inkscape.org/namespaces/inkscape"
   version="1.1"
   width="20"
   height="14"
   viewBox="0 0 20 14"
   id="Layer_1"
   xml:space="preserve"
   inkscape:version="0.48.2 r9819"
   sodipodi:docname="cog.svg"
   inkscape:export-filename="/Users/pau/repos/wikimedia/UniversalLanguageSelector/resources/images/cog.png"
   inkscape:export-xdpi="90"
   inkscape:export-ydpi="90"><sodipodi:namedview
   pagecolor="#ffffff"
   bordercolor="#666666"
   borderopacity="1"
   objecttolerance="10"
   gridtolerance="10"
   guidetolerance="10"
   inkscape:pageopacity="0"
   inkscape:pageshadow="2"
   inkscape:window-width="1124"
   inkscape:window-height="646"
   id="namedview82"
   showgrid="false"
   inkscape:zoom="7.3750004"
   inkscape:cx="3.9830519"
   inkscape:cy="14.711864"
   inkscape:window-x="520"
   inkscape:window-y="93"
   inkscape:window-maximized="0"
   inkscape:current-layer="Layer_1" /><metadata
   id="metadata7"><rdf:RDF><cc:Work
       rdf:about=""><dc:format>image/svg+xml</dc:format><dc:type
         rdf:resource="http://purl.org/dc/dcmitype/StillImage" /><dc:title></dc:title></cc:Work></rdf:RDF></metadata><defs
   id="defs5"><marker
     refX="0"
     refY="0"
     orient="auto"
     id="Arrow2Mend-5"
     style="overflow:visible"><path
       d="M 8.7185878,4.0337352 -2.2072895,0.01601326 8.7185884,-4.0017078 c -1.7454984,2.3720609 -1.7354408,5.6174519 -6e-7,8.035443 z"
       transform="scale(-0.6,-0.6)"
       id="path45132-1"
       style="font-size:12px;fill-rule:evenodd;stroke-width:0.625;stroke-linejoin:round"
       inkscape:connector-curvature="0" /></marker><marker
     refX="0"
     refY="0"
     orient="auto"
     id="DotM-00"
     style="overflow:visible"><path
       d="m -2.5,-1 c 0,2.76 -2.24,5 -5,5 -2.76,0 -5,-2.24 -5,-5 0,-2.76 2.24,-5 5,-5 2.76,0 5,2.24 5,5 z"
       transform="matrix(0.4,0,0,0.4,2.96,0.4)"
       id="path14329-2"
       style="fill-rule:evenodd;stroke:#000000;stroke-width:1pt;marker-start:none;marker-end:none"
       inkscape:connector-curvature="0" /></marker><marker
     refX="0"
     refY="0"
     orient="auto"
     id="Arrow2Mend-07"
     style="overflow:visible"><path
       d="M 8.7185878,4.0337352 -2.2072895,0.01601326 8.7185884,-4.0017078 c -1.7454984,2.3720609 -1.7354408,5.6174519 -6e-7,8.035443 z"
       transform="scale(-0.6,-0.6)"
       id="path45132-31"
       style="font-size:12px;fill-rule:evenodd;stroke-width:0.625;stroke-linejoin:round"
       inkscape:connector-curvature="0" /></marker><marker
     refX="0"
     refY="0"
     orient="auto"
     id="DotM-0"
     style="overflow:visible"><path
       d="m -2.5,-1 c 0,2.76 -2.24,5 -5,5 -2.76,0 -5,-2.24 -5,-5 0,-2.76 2.24,-5 5,-5 2.76,0 5,2.24 5,5 z"
       transform="matrix(0.4,0,0,0.4,2.96,0.4)"
       id="path14329-94"
       style="fill-rule:evenodd;stroke:#000000;stroke-width:1pt;marker-start:none;marker-end:none"
       inkscape:connector-curvature="0" /></marker><marker
     refX="0"
     refY="0"
     orient="auto"
     id="Arrow2Mend-6"
     style="overflow:visible"><path
       d="M 8.7185878,4.0337352 -2.2072895,0.01601326 8.7185884,-4.0017078 c -1.7454984,2.3720609 -1.7354408,5.6174519 -6e-7,8.035443 z"
       transform="scale(-0.6,-0.6)"
       id="path45132-8"
       style="font-size:12px;fill-rule:evenodd;stroke-width:0.625;stroke-linejoin:round"
       inkscape:connector-curvature="0" /></marker><marker
     refX="0"
     refY="0"
     orient="auto"
     id="DotM-8"
     style="overflow:visible"><path
       d="m -2.5,-1 c 0,2.76 -2.24,5 -5,5 -2.76,0 -5,-2.24 -5,-5 0,-2.76 2.24,-5 5,-5 2.76,0 5,2.24 5,5 z"
       transform="matrix(0.4,0,0,0.4,2.96,0.4)"
       id="path14329-91"
       style="fill-rule:evenodd;stroke:#000000;stroke-width:1pt;marker-start:none;marker-end:none"
       inkscape:connector-curvature="0" /></marker><clipPath
     id="clipPath3169-2"><rect
       width="748.77557"
       height="428.80975"
       x="48.992397"
       y="105.34417"
       id="rect3171-7"
       style="fill:#f5f5f4;fill-opacity:1;stroke:#888a85;stroke-width:2;stroke-miterlimit:4;stroke-opacity:1;stroke-dasharray:none;stroke-dashoffset:0" /></clipPath><clipPath
     id="clipPath22-7"><path
       d="M 0,792 1224,792 1224,0 0,0 0,792 z"
       id="path24-2"
       inkscape:connector-curvature="0" /></clipPath><clipPath
     id="clipPath6483-7"><rect
       width="548"
       height="280"
       x="67.578148"
       y="187.65627"
       id="rect6485-5"
       style="fill:#ffffff;fill-opacity:1;stroke:none" /></clipPath><clipPath
     id="clipPath10152"><rect
       width="718.58722"
       height="140.17392"
       x="-37.134048"
       y="754.14667"
       id="rect10154"
       style="fill:#555753;fill-opacity:1;stroke:#555753;stroke-width:1.83322382;stroke-miterlimit:4;stroke-opacity:1;stroke-dasharray:none;stroke-dashoffset:0" /></clipPath><marker
     refX="0"
     refY="0"
     orient="auto"
     id="Arrow2Mend-0"
     style="overflow:visible"><path
       d="M 8.7185878,4.0337352 -2.2072895,0.01601326 8.7185884,-4.0017078 c -1.7454984,2.3720609 -1.7354408,5.6174519 -6e-7,8.035443 z"
       transform="scale(-0.6,-0.6)"
       id="path45132-982"
       style="font-size:12px;fill-rule:evenodd;stroke-width:0.625;stroke-linejoin:round"
       inkscape:connector-curvature="0" /></marker><marker
     refX="0"
     refY="0"
     orient="auto"
     id="DotM-2"
     style="overflow:visible"><path
       d="m -2.5,-1 c 0,2.76 -2.24,5 -5,5 -2.76,0 -5,-2.24 -5,-5 0,-2.76 2.24,-5 5,-5 2.76,0 5,2.24 5,5 z"
       transform="matrix(0.4,0,0,0.4,2.96,0.4)"
       id="path14329-95"
       style="fill-rule:evenodd;stroke:#000000;stroke-width:1pt;marker-start:none;marker-end:none"
       inkscape:connector-curvature="0" /></marker><marker
     refX="0"
     refY="0"
     orient="auto"
     id="Arrow2Mend-2"
     style="overflow:visible"><path
       d="M 8.7185878,4.0337352 -2.2072895,0.01601326 8.7185884,-4.0017078 c -1.7454984,2.3720609 -1.7354408,5.6174519 -6e-7,8.035443 z"
       transform="scale(-0.6,-0.6)"
       id="path45132-98"
       style="font-size:12px;fill-rule:evenodd;stroke-width:0.625;stroke-linejoin:round"
       inkscape:connector-curvature="0" /></marker><marker
     refX="0"
     refY="0"
     orient="auto"
     id="DotM-5"
     style="overflow:visible"><path
       d="m -2.5,-1 c 0,2.76 -2.24,5 -5,5 -2.76,0 -5,-2.24 -5,-5 0,-2.76 2.24,-5 5,-5 2.76,0 5,2.24 5,5 z"
       transform="matrix(0.4,0,0,0.4,2.96,0.4)"
       id="path14329-1"
       style="fill-rule:evenodd;stroke:#000000;stroke-width:1pt;marker-start:none;marker-end:none"
       inkscape:connector-curvature="0" /></marker><marker
     refX="0"
     refY="0"
     orient="auto"
     id="Arrow2Mend-75"
     style="overflow:visible"><path
       d="M 8.7185878,4.0337352 -2.2072895,0.01601326 8.7185884,-4.0017078 c -1.7454984,2.3720609 -1.7354408,5.6174519 -6e-7,8.035443 z"
       transform="scale(-0.6,-0.6)"
       id="path45132-9"
       style="font-size:12px;fill-rule:evenodd;stroke-width:0.625;stroke-linejoin:round"
       inkscape:connector-curvature="0" /></marker><marker
     refX="0"
     refY="0"
     orient="auto"
     id="DotM-466"
     style="overflow:visible"><path
       d="m -2.5,-1 c 0,2.76 -2.24,5 -5,5 -2.76,0 -5,-2.24 -5,-5 0,-2.76 2.24,-5 5,-5 2.76,0 5,2.24 5,5 z"
       transform="matrix(0.4,0,0,0.4,2.96,0.4)"
       id="path14329-32"
       style="fill-rule:evenodd;stroke:#000000;stroke-width:1pt;marker-start:none;marker-end:none"
       inkscape:connector-curvature="0" /></marker><marker
     refX="0"
     refY="0"
     orient="auto"
     id="marker32938"
     style="overflow:visible"><path
       d="M 8.7185878,4.0337352 -2.2072895,0.01601326 8.7185884,-4.0017078 c -1.7454984,2.3720609 -1.7354408,5.6174519 -6e-7,8.035443 z"
       transform="scale(-0.6,-0.6)"
       id="path32940"
       style="font-size:12px;fill-rule:evenodd;stroke-width:0.625;stroke-linejoin:round"
       inkscape:connector-curvature="0" /></marker><marker
     refX="0"
     refY="0"
     orient="auto"
     id="marker32934"
     style="overflow:visible"><path
       d="m -2.5,-1 c 0,2.76 -2.24,5 -5,5 -2.76,0 -5,-2.24 -5,-5 0,-2.76 2.24,-5 5,-5 2.76,0 5,2.24 5,5 z"
       transform="matrix(0.4,0,0,0.4,2.96,0.4)"
       id="path32936"
       style="fill-rule:evenodd;stroke:#000000;stroke-width:1pt;marker-start:none;marker-end:none"
       inkscape:connector-curvature="0" /></marker><marker
     refX="0"
     refY="0"
     orient="auto"
     id="Arrow2Mend-7"
     style="overflow:visible"><path
       d="M 8.7185878,4.0337352 -2.2072895,0.01601326 8.7185884,-4.0017078 c -1.7454984,2.3720609 -1.7354408,5.6174519 -6e-7,8.035443 z"
       transform="scale(-0.6,-0.6)"
       id="path45132-2"
       style="font-size:12px;fill-rule:evenodd;stroke-width:0.625;stroke-linejoin:round"
       inkscape:connector-curvature="0" /></marker><marker
     refX="0"
     refY="0"
     orient="auto"
     id="DotM-46"
     style="overflow:visible"><path
       d="m -2.5,-1 c 0,2.76 -2.24,5 -5,5 -2.76,0 -5,-2.24 -5,-5 0,-2.76 2.24,-5 5,-5 2.76,0 5,2.24 5,5 z"
       transform="matrix(0.4,0,0,0.4,2.96,0.4)"
       id="path14329-9"
       style="fill-rule:evenodd;stroke:#000000;stroke-width:1pt;marker-start:none;marker-end:none"
       inkscape:connector-curvature="0" /></marker><marker
     refX="0"
     refY="0"
     orient="auto"
     id="Arrow2Mend-3"
     style="overflow:visible"><path
       d="M 8.7185878,4.0337352 -2.2072895,0.01601326 8.7185884,-4.0017078 c -1.7454984,2.3720609 -1.7354408,5.6174519 -6e-7,8.035443 z"
       transform="scale(-0.6,-0.6)"
       id="path45132-3"
       style="font-size:12px;fill-rule:evenodd;stroke-width:0.625;stroke-linejoin:round"
       inkscape:connector-curvature="0" /></marker><marker
     refX="0"
     refY="0"
     orient="auto"
     id="DotM-42"
     style="overflow:visible"><path
       d="m -2.5,-1 c 0,2.76 -2.24,5 -5,5 -2.76,0 -5,-2.24 -5,-5 0,-2.76 2.24,-5 5,-5 2.76,0 5,2.24 5,5 z"
       transform="matrix(0.4,0,0,0.4,2.96,0.4)"
       id="path14329-3"
       style="fill-rule:evenodd;stroke:#000000;stroke-width:1pt;marker-start:none;marker-end:none"
       inkscape:connector-curvature="0" /></marker><marker
     refX="0"
     refY="0"
     orient="auto"
     id="Arrow2Mend-9"
     style="overflow:visible"><path
       d="M 8.7185878,4.0337352 -2.2072895,0.01601326 8.7185884,-4.0017078 c -1.7454984,2.3720609 -1.7354408,5.6174519 -6e-7,8.035443 z"
       transform="scale(-0.6,-0.6)"
       id="path45132-4"
       style="font-size:12px;fill-rule:evenodd;stroke-width:0.625;stroke-linejoin:round"
       inkscape:connector-curvature="0" /></marker><marker
     refX="0"
     refY="0"
     orient="auto"
     id="DotM-4"
     style="overflow:visible"><path
       d="m -2.5,-1 c 0,2.76 -2.24,5 -5,5 -2.76,0 -5,-2.24 -5,-5 0,-2.76 2.24,-5 5,-5 2.76,0 5,2.24 5,5 z"
       transform="matrix(0.4,0,0,0.4,2.96,0.4)"
       id="path14329-8"
       style="fill-rule:evenodd;stroke:#000000;stroke-width:1pt;marker-start:none;marker-end:none"
       inkscape:connector-curvature="0" /></marker><clipPath
     id="clipPath6483-5"><rect
       width="548"
       height="280"
       x="67.578148"
       y="187.65627"
       id="rect6485-2"
       style="fill:#ffffff;fill-opacity:1;stroke:none" /></clipPath><clipPath
     id="clipPath6483-1-7-3-0"><rect
       width="548"
       height="280"
       x="67.578148"
       y="187.65627"
       id="rect6485-6-4-5-6"
       style="fill:#ffffff;fill-opacity:1;stroke:none" /></clipPath><marker
     refX="0"
     refY="0"
     orient="auto"
     id="Arrow2Lend-0"
     style="overflow:visible"><path
       d="M 8.7185878,4.0337352 -2.2072895,0.01601326 8.7185884,-4.0017078 c -1.7454984,2.3720609 -1.7354408,5.6174519 -6e-7,8.035443 z"
       transform="matrix(-1.1,0,0,-1.1,-1.1,0)"
       id="path45126-6"
       style="font-size:12px;fill-rule:evenodd;stroke-width:0.625;stroke-linejoin:round"
       inkscape:connector-curvature="0" /></marker><clipPath
     id="clipPath6483-1-7-3-9"><rect
       width="548"
       height="280"
       x="67.578148"
       y="187.65627"
       id="rect6485-6-4-5-8"
       style="fill:#ffffff;fill-opacity:1;stroke:none" /></clipPath><clipPath
     id="clipPath6483-1-7-3"><rect
       width="548"
       height="280"
       x="67.578148"
       y="187.65627"
       id="rect6485-6-4-5"
       style="fill:#ffffff;fill-opacity:1;stroke:none" /></clipPath><clipPath
     id="clipPath6483-1-7"><rect
       width="548"
       height="280"
       x="67.578148"
       y="187.65627"
       id="rect6485-6-4"
       style="fill:#ffffff;fill-opacity:1;stroke:none" /></clipPath><clipPath
     id="clipPath6483-1"><rect
       width="548"
       height="280"
       x="67.578148"
       y="187.65627"
       id="rect6485-6"
       style="fill:#ffffff;fill-opacity:1;stroke:none" /></clipPath><clipPath
     id="clipPath6483"><rect
       width="548"
       height="280"
       x="67.578148"
       y="187.65627"
       id="rect6485"
       style="fill:#ffffff;fill-opacity:1;stroke:none" /></clipPath><clipPath
     id="clipPath22"><path
       d="M 0,792 1224,792 1224,0 0,0 0,792 z"
       id="path24"
       inkscape:connector-curvature="0" /></clipPath><clipPath
     id="clipPath3169"><rect
       width="748.77557"
       height="428.80975"
       x="48.992397"
       y="105.34417"
       id="rect3171"
       style="fill:#f5f5f4;fill-opacity:1;stroke:#888a85;stroke-width:2;stroke-miterlimit:4;stroke-opacity:1;stroke-dasharray:none;stroke-dashoffset:0" /></clipPath><marker
     refX="0"
     refY="0"
     orient="auto"
     id="Arrow2Lend"
     style="overflow:visible"><path
       d="M 8.7185878,4.0337352 -2.2072895,0.01601326 8.7185884,-4.0017078 c -1.7454984,2.3720609 -1.7354408,5.6174519 -6e-7,8.035443 z"
       transform="matrix(-1.1,0,0,-1.1,-1.1,0)"
       id="path45126"
       style="font-size:12px;fill-rule:evenodd;stroke-width:0.625;stroke-linejoin:round"
       inkscape:connector-curvature="0" /></marker><marker
     refX="0"
     refY="0"
     orient="auto"
     id="Arrow2Mend"
     style="overflow:visible"><path
       d="M 8.7185878,4.0337352 -2.2072895,0.01601326 8.7185884,-4.0017078 c -1.7454984,2.3720609 -1.7354408,5.6174519 -6e-7,8.035443 z"
       transform="scale(-0.6,-0.6)"
       id="path45132"
       style="font-size:12px;fill-rule:evenodd;stroke-width:0.625;stroke-linejoin:round"
       inkscape:connector-curvature="0" /></marker><marker
     refX="0"
     refY="0"
     orient="auto"
     id="DotL"
     style="overflow:visible"><path
       d="m -2.5,-1 c 0,2.76 -2.24,5 -5,5 -2.76,0 -5,-2.24 -5,-5 0,-2.76 2.24,-5 5,-5 2.76,0 5,2.24 5,5 z"
       transform="matrix(0.8,0,0,0.8,5.92,0.8)"
       id="path14326"
       style="fill-rule:evenodd;stroke:#000000;stroke-width:1pt;marker-start:none;marker-end:none"
       inkscape:connector-curvature="0" /></marker><marker
     refX="0"
     refY="0"
     orient="auto"
     id="DotM"
     style="overflow:visible"><path
       d="m -2.5,-1 c 0,2.76 -2.24,5 -5,5 -2.76,0 -5,-2.24 -5,-5 0,-2.76 2.24,-5 5,-5 2.76,0 5,2.24 5,5 z"
       transform="matrix(0.4,0,0,0.4,2.96,0.4)"
       id="path14329"
       style="fill-rule:evenodd;stroke:#000000;stroke-width:1pt;marker-start:none;marker-end:none"
       inkscape:connector-curvature="0" /></marker></defs>
<path
   d="M 9.0323793,0 C 8.8005682,0 8.6139472,0.18662 8.6139472,0.41843112 l 0,1.06351138 C 8.0726951,1.6163066 7.5517427,1.8325625 7.0622665,2.127024 L 6.3125779,1.3773353 c -0.1639151,-0.1639151 -0.4288625,-0.1639151 -0.5927775,0 L 4.3599,2.7372351 c -0.1639149,0.1639155 -0.1639149,0.4288621 0,0.5927775 L 5.1095888,4.0797018 C 4.8174321,4.5677486 4.6148495,5.094608 4.4819426,5.6313825 l -1.063512,0 c -0.2318107,0 -0.4184309,0.18662 -0.4184309,0.4184294 l 0,1.9178088 c 0,0.2318111 0.1866202,0.4184311 0.418431,0.4184311 l 1.0460772,0 C 4.5988498,8.9277869 4.8148803,9.4478449 5.1095888,9.9377329 L 4.3599,10.687422 c -0.1639149,0.163914 -0.1639149,0.428861 0,0.592778 l 1.3599004,1.359899 c 0.163915,0.163915 0.4288624,0.163915 0.5927774,0 l 0.7496887,-0.749688 c 0.4916156,0.296501 1.0103341,0.493233 1.5516807,0.627646 l 0,1.063512 C 8.6139472,13.81338 8.8005682,14 9.0323792,14 l 1.9178088,0 c 0.231809,0 0.418429,-0.18662 0.418429,-0.418431 l 0,-1.063512 c 0.542505,-0.133696 1.061019,-0.333273 1.551681,-0.627646 l 0.74969,0.749688 c 0.163915,0.163915 0.428862,0.163915 0.592777,0 l 1.3599,-1.359899 c 0.163915,-0.163917 0.163915,-0.428864 0,-0.592778 L 14.872976,9.9377329 c 0.295073,-0.4890017 0.510408,-1.0132343 0.64508,-1.5516807 l 1.063513,0 C 16.813379,8.3860518 17,8.1994318 17,7.9676207 L 17,6.0498136 C 17,5.8180025 16.81338,5.6313825 16.581569,5.6313825 l -1.063513,0 C 15.384503,5.0933961 15.164701,4.5666491 14.872976,4.0797018 l 0.749688,-0.7496892 c 0.163915,-0.1639154 0.163915,-0.428862 0,-0.5927775 L 14.262765,1.3773353 c -0.163915,-0.1639151 -0.428862,-0.1639151 -0.592777,0 L 12.920298,2.127024 C 12.430368,1.8329562 11.907767,1.6153555 11.368616,1.4819425 l 0,-1.06351138 C 11.368616,0.18662 11.181996,0 10.950188,0 L 9.0323793,0 z m 0.8891645,4.3586548 c 0.6779692,-0.017997 1.3693712,0.211273 1.9003732,0.7148193 1.062002,1.0070927 1.1117,2.6864413 0.104608,3.7484439 C 10.921919,9.881298 9.2409652,9.9274262 8.1780818,8.9265251 7.1160799,7.9194327 7.066382,6.2400841 8.0734747,5.1780816 8.5770213,4.6470809 9.2435753,4.3766477 9.9215438,4.3586553 z"
   id="rect3381-0"
   style="fill:#434343;fill-opacity:1;stroke:none"
   inkscape:connector-curvature="0" /></svg>

<?xml version="1.0" encoding="UTF-8"?><svg xmlns="http://www.w3.org/2000/svg" width="20" height="14"><path d="M9.032 0c-.232 0-.418.187-.418.418v1.064c-.541.134-1.062.351-1.552.645l-.75-.75c-.164-.164-.429-.164-.593 0l-1.36 1.36c-.164.164-.164.429 0 .593l.75.75c-.292.488-.495 1.015-.628 1.552h-1.064c-.232 0-.418.187-.418.418v1.918c0 .232.187.418.418.418h1.046c.134.542.35 1.062.645 1.552l-.75.75c-.164.164-.164.429 0 .593l1.36 1.36c.164.164.429.164.593 0l.75-.75c.492.297 1.01.493 1.552.628v1.064c0 .232.187.418.418.418h1.918c.232 0 .418-.187.418-.418v-1.064c.543-.134 1.061-.333 1.552-.628l.75.75c.164.164.429.164.593 0l1.36-1.36c.164-.164.164-.429 0-.593l-.75-.75c.295-.489.51-1.013.645-1.552h1.064c.232 0 .418-.187.418-.418v-1.918c0-.232-.187-.418-.418-.418h-1.064c-.134-.538-.353-1.065-.645-1.552l.75-.75c.164-.164.164-.429 0-.593l-1.36-1.36c-.164-.164-.429-.164-.593 0l-.75.75c-.49-.294-1.013-.512-1.552-.645v-1.064c0-.232-.187-.418-.418-.418h-1.918zm.889 4.359c.678-.018 1.369.211 1.9.715 1.062 1.007 1.112 2.686.105 3.748-1.005 1.059-2.686 1.106-3.748.105-1.062-1.007-1.112-2.686-.105-3.748.504-.531 1.17-.801 1.848-.819z" fill="#434343"/></svg>
